X: 31125
T: Paddy Fahey's
R: reel
M: 4/4
K: Cmajor
|:c2eg fdBd|cBGF DEFD|Gc~c2 gceg|fdcB GcBd|
c2de fdBd|cBGA _B2Bc|dg(3ggg defd|gfdc BGAB:|

